openmetadata-ui/src/main/resources/ui/src/assets/svg/ingestion.svg

<svg xmlns="http://www.w3.org/2000/svg" width="16" height="16" viewBox="0 0 16 16" fill="none">
<path d="M8.50012 0.5C8.50012 0.223858 8.27626 -1.20706e-08 8.00012 0C7.72398 1.20706e-08 7.50012 0.223858 7.50012 0.5L8.50012 0.5ZM7.64657 7.41605C7.84183 7.61132 8.15841 7.61132 8.35368 7.41605L11.5357 4.23407C11.7309 4.03881 11.7309 3.72223 11.5357 3.52697C11.3404 3.3317 11.0238 3.3317 10.8285 3.52697L8.00012 6.35539L5.1717 3.52697C4.97643 3.3317 4.65985 3.3317 4.46459 3.52697C4.26933 3.72223 4.26933 4.03881 4.46459 4.23407L7.64657 7.41605ZM7.50012 0.5L7.50012 7.0625L8.50012 7.0625L8.50012 0.5L7.50012 0.5Z" fill="#37352F"/>
<path d="M0.5 8.5C0.223858 8.5 0 8.27614 0 8C0 7.72386 0.223858 7.5 0.5 7.5V8.5ZM0.5 7.5C1.9946 7.5 2.82121 7.61173 3.5046 8.30533C3.81348 8.61881 4.07816 9.03659 4.38087 9.53244C4.69147 10.0412 5.06321 10.6699 5.60229 11.4708L4.77271 12.0292C4.21804 11.2051 3.83197 10.5525 3.52734 10.0535C3.21481 9.54154 3.00683 9.22494 2.79227 9.00717C2.42879 8.63827 2.0054 8.5 0.5 8.5V7.5Z" fill="#37352F"/>
<path d="M6.12524 9.40625L5.29182 12.2188L2.37524 11.75" stroke="#37352F" stroke-linecap="round" stroke-linejoin="round"/>
<path d="M15.5 8.5C15.7761 8.5 16 8.27614 16 8C16 7.72386 15.7761 7.5 15.5 7.5V8.5ZM15.5 7.5C14.0054 7.5 13.1788 7.61173 12.4954 8.30533C12.1865 8.61881 11.9218 9.03659 11.6191 9.53244C11.3085 10.0412 10.9368 10.6699 10.3977 11.4708L11.2273 12.0292C11.782 11.2051 12.168 10.5525 12.4727 10.0535C12.7852 9.54154 12.9932 9.22494 13.2077 9.00717C13.5712 8.63827 13.9946 8.5 15.5 8.5V7.5Z" fill="#37352F"/>
<path d="M9.87476 9.40625L10.7082 12.2188L13.6248 11.75" stroke="#37352F" stroke-linecap="round" stroke-linejoin="round"/>
<path d="M0.5 13.0893V15.5H15.5V12.6875" stroke="#37352F" stroke-linecap="round" stroke-linejoin="round"/>
</svg>

<svg xmlns="http://www.w3.org/2000/svg" width="16" height="16" fill="none"><path fill="#37352F" d="M8.5.5a.5.5 0 0 0-1 0h1Zm-.853 6.916a.5.5 0 0 0 .707 0l3.182-3.182a.5.5 0 0 0-.707-.707L8 6.355 5.172 3.527a.5.5 0 1 0-.707.707l3.182 3.182ZM7.5.5v6.563h1V.5h-1ZM.5 8.5a.5.5 0 0 1 0-1v1Zm0-1c1.495 0 2.321.112 3.005.805.308.314.573.732.876 1.227.31.51.682 1.138 1.221 1.939l-.83.558c-.554-.824-.94-1.476-1.245-1.976-.312-.511-.52-.828-.735-1.046C2.43 8.638 2.005 8.5.5 8.5v-1Z"/><path stroke="#37352F" stroke-linecap="round" stroke-linejoin="round" d="m6.125 9.406-.833 2.813-2.917-.469"/><path fill="#37352F" d="M15.5 8.5a.5.5 0 0 0 0-1v1Zm0-1c-1.495 0-2.321.112-3.005.805-.308.314-.573.732-.876 1.227-.31.51-.682 1.138-1.221 1.939l.83.558c.554-.824.94-1.476 1.245-1.976.312-.511.52-.828.735-1.046.363-.369.787-.507 2.292-.507v-1Z"/><path stroke="#37352F" stroke-linecap="round" stroke-linejoin="round" d="m9.875 9.406.833 2.813 2.917-.469M.5 13.09v2.41h15v-2.813"/></svg>
